src/assets/tokens/wbera-ir.svg

<svg width="192" height="128" viewBox="0 0 192 128" fill="none" xmlns="http://www.w3.org/2000/svg">
<g clip-path="url(#clip0_71_2042)">
<path d="M64 128C99.3462 128 128 99.3462 128 64C128 28.6538 99.3462 0 64 0C28.6538 0 0 28.6538 0 64C0 99.3462 28.6538 128 64 128Z" fill="#78350F"/>
<path d="M64 122C96.0325 122 122 96.0325 122 64C122 31.9675 96.0325 6 64 6C31.9675 6 6 31.9675 6 64C6 96.0325 31.9675 122 64 122Z" fill="white"/>
<path d="M47.52 41.1358C46.4547 40.4637 45.2719 39.9989 44.034 39.7658C42.8209 39.5335 41.5735 39.5478 40.366 39.8078C39.1843 40.0628 38.066 40.5532 37.078 41.2498C36.0978 41.9492 35.2754 42.8465 34.664 43.8838C34.0469 44.9343 33.6496 46.0992 33.496 47.3078C33.3359 48.5398 33.4215 49.7912 33.748 50.9898C34.286 53.0018 36.772 53.3858 38.48 52.1618L42.832 49.0498L47.196 45.9298C48.902 44.7038 49.3 42.2558 47.52 41.1358ZM93.534 43.8838C92.9201 42.8446 92.0958 41.9451 91.1138 41.2432C90.1319 40.5413 89.014 40.0523 87.832 39.8078C86.6244 39.5484 85.377 39.5348 84.164 39.7678C82.9256 40 81.7421 40.4642 80.676 41.1358C78.896 42.2558 79.296 44.7038 81.002 45.9278L85.366 49.0498L89.718 52.1618C91.426 53.3858 93.912 53.0018 94.45 50.9898C94.7765 49.7912 94.8621 48.5398 94.702 47.3078C94.5485 46.0992 94.1511 44.9343 93.534 43.8838ZM67.63 77.5978C65.531 76.8928 63.2591 76.8928 61.16 77.5978C60 77.9918 58.988 78.6038 59.052 79.5258C59.168 80.9378 61.412 83.3538 63.034 83.8518C64.026 84.1518 64.648 84.1318 65.754 83.8518C67.376 83.4358 69.632 80.9378 69.738 79.5258C69.812 78.6038 68.788 77.9938 67.63 77.5978ZM56.512 73.0538C55.9353 72.2892 55.2119 71.6474 54.384 71.1658C53.5662 70.6902 52.6582 70.3905 51.718 70.2858C50.7755 70.181 49.8216 70.2688 48.914 70.5438C48.008 70.8238 47.154 71.2798 46.406 71.9038C45.6558 72.529 45.0331 73.293 44.572 74.1538C43.802 75.5938 45.026 77.1098 46.67 77.2958L50.822 77.7638L55.006 78.2398C56.65 78.4278 58.198 77.2338 57.776 75.6578C57.5254 74.7169 57.0963 73.8328 56.512 73.0538ZM82.248 71.7558C81.5076 71.1439 80.655 70.682 79.738 70.3958C78.8311 70.1211 77.8779 70.0333 76.936 70.1378C75.9957 70.2431 75.0876 70.5435 74.27 71.0198C73.4415 71.5012 72.7173 72.143 72.14 72.9078C71.5536 73.6855 71.1243 74.57 70.876 75.5118C70.456 77.0878 72.004 78.2818 73.636 78.0938L77.822 77.6178L81.982 77.1498C83.628 76.9638 84.85 75.4498 84.082 74.0078C83.6171 73.149 82.9949 72.3851 82.248 71.7558Z" fill="#78350F"/>
<path d="M102.018 61.8002C105.571 57.9231 107.516 52.8389 107.456 47.5802C107.422 44.5334 106.713 41.5319 105.38 38.7922C101.648 31.0742 92.206 25.0482 82.542 27.0602C82.1487 27.1468 81.7593 27.2475 81.374 27.3622C79.9457 27.7968 78.6146 28.503 77.454 29.4422C74.872 31.5022 70.128 32.8822 64.702 32.8822H64.086C58.662 32.8822 53.918 31.4982 51.336 29.4382C50.1746 28.4995 48.8429 27.7939 47.414 27.3602C47.0286 27.2449 46.639 27.1441 46.246 27.0582C36.584 25.0462 27.142 31.0722 23.41 38.7902C22.0769 41.5293 21.3679 44.53 21.334 47.5762C21.2765 52.8355 23.2213 57.9198 26.774 61.7982C26.9192 61.9597 27.0264 62.1517 27.088 62.36C27.1496 62.5682 27.164 62.7876 27.13 63.0022C24.802 76.1022 28.238 86.8822 35.31 94.5562C42.738 102.616 53.634 106.632 64.204 106.85H64.586C75.154 106.632 86.052 102.618 93.48 94.5582C100.552 86.8822 103.988 76.1042 101.66 63.0022C101.625 62.7876 101.639 62.568 101.701 62.3596C101.763 62.1512 101.87 61.9594 102.016 61.7982L102.018 61.8002ZM95.832 59.5282C95.5751 59.7351 95.3822 60.0108 95.276 60.3231C95.1698 60.6354 95.1545 60.9715 95.232 61.2922C100.722 84.1642 86.612 97.5162 70.402 100.378H70.392C68.8275 100.657 67.2471 100.837 65.66 100.918C65.566 100.918 65.46 100.928 65.366 100.928C65.07 100.948 64.766 100.948 64.47 100.96H64.396L64.376 100.958H64.322C64.026 100.948 63.722 100.948 63.426 100.928C63.332 100.928 63.226 100.916 63.13 100.916C61.5436 100.835 59.9638 100.655 58.4 100.376H58.388C42.18 97.5162 28.068 84.1642 33.56 61.2902C33.6371 60.9698 33.6216 60.6341 33.5154 60.3222C33.4092 60.0103 33.2166 59.7349 32.96 59.5282C31.173 58.1063 29.7342 56.2953 28.7533 54.233C27.7724 52.1707 27.2753 49.9117 27.3 47.6282C27.3268 45.4426 27.8341 43.2897 28.786 41.3222C31.546 35.6062 38.492 31.4462 45.016 32.8062C45.78 32.9622 47.828 33.6262 49.824 34.5622C50.548 34.9022 51.228 35.3262 51.864 35.8062C54.48 37.7822 59.114 39.0962 64.396 39.1022C69.68 39.0982 74.316 37.7822 76.93 35.8082C77.566 35.3282 78.244 34.9042 78.97 34.5642C80.964 33.6282 83.012 32.9642 83.778 32.8062C90.3 31.4462 97.246 35.6062 100.008 41.3242C100.959 43.2919 101.466 45.4448 101.492 47.6302C101.516 49.9134 101.019 52.172 100.038 54.2339C99.0574 56.2958 97.6188 58.1066 95.832 59.5282Z" fill="#78350F"/>
<g clip-path="url(#clip1_71_2042)">
<path d="M127.75 64C127.75 28.7925 99.2075 0.25 64 0.25C28.7925 0.25 0.25 28.7925 0.25 64C0.25 99.2075 28.7925 127.75 64 127.75V128C28.6525 128 0 99.3475 0 64C0 28.6525 28.6525 0 64 0C99.3475 0 128 28.6525 128 64C128 99.3475 99.3475 128 64 128V127.75C99.2075 127.75 127.75 99.2075 127.75 64Z" fill="url(#paint0_linear_71_2042)"/>
</g>
<path d="M192 64C192 99.3475 163.347 128 128 128C92.6525 128 64 99.3475 64 64C64 28.6525 92.6525 0 128 0C163.347 0 192 28.6525 192 64Z" fill="#0A0A0A"/>
<path d="M191.75 64C191.75 28.7925 163.208 0.25 128 0.25C92.7925 0.25 64.25 28.7925 64.25 64C64.25 99.2075 92.7925 127.75 128 127.75V128C92.6525 128 64 99.3475 64 64C64 28.6525 92.6525 0 128 0C163.347 0 192 28.6525 192 64C192 99.3475 163.347 128 128 128V127.75C163.208 127.75 191.75 99.2075 191.75 64Z" fill="url(#paint1_linear_71_2042)"/>
<path d="M128 119.775C158.802 119.775 183.775 94.8021 183.775 63.9996C183.775 33.1971 158.802 8.22461 128 8.22461C97.1975 8.22461 72.225 33.1971 72.225 63.9996C72.225 94.8021 97.1975 119.775 128 119.775Z" fill="url(#paint2_linear_71_2042)"/>
<path d="M128 118.49C158.095 118.49 182.49 94.0948 182.49 63.9998C182.49 33.9048 158.095 9.50977 128 9.50977C97.905 9.50977 73.51 33.9048 73.51 63.9998C73.51 94.0948 97.905 118.49 128 118.49Z" fill="#0A0A0A"/>
<path d="M109.575 33.1573C109.575 32.3398 109.9 31.5548 110.475 30.9773C111.051 30.3999 111.832 30.0745 112.648 30.0723H118.8C119.615 30.0723 120.398 30.3973 120.973 30.9773C121.548 31.5548 121.873 32.3398 121.873 33.1573V39.3048C121.873 40.1223 122.198 40.9073 122.773 41.4873C123.348 42.0673 124.13 42.3923 124.945 42.3923H131.03C131.845 42.3923 132.628 42.0673 133.205 41.4873C133.783 40.9098 134.105 40.1248 134.105 39.3048V33.1573C134.105 32.3398 134.43 31.5548 135.005 30.9773C135.581 30.3999 136.362 30.0745 137.178 30.0723H143.325C144.14 30.0723 144.923 30.3973 145.5 30.9773C146.078 31.5573 146.4 32.3398 146.4 33.1573V39.3298C146.4 40.1473 146.075 40.9323 145.5 41.5123C144.923 42.0898 144.141 42.4152 143.325 42.4173H137.203C136.388 42.4173 135.605 42.7423 135.028 43.3223C134.45 43.9023 134.128 44.6848 134.128 45.5048V51.6523C134.128 52.4698 133.803 53.2548 133.228 53.8348C132.653 54.4123 131.87 54.7398 131.055 54.7398H124.903C124.088 54.7398 123.305 54.4148 122.73 53.8348C122.154 53.2555 121.83 52.4718 121.83 51.6548V45.5073C121.83 44.6898 121.505 43.9048 120.93 43.3248C120.645 43.0379 120.306 42.8103 119.933 42.655C119.56 42.4996 119.159 42.4197 118.755 42.4198H112.63C111.815 42.4198 111.033 42.0948 110.458 41.5148C109.883 40.9348 109.558 40.1523 109.558 39.3348V33.1623H109.573V33.1573H109.575ZM106.5 79.4123C106.5 80.2298 106.175 81.0148 105.6 81.5923C105.024 82.1692 104.243 82.4945 103.428 82.4973H97.275C96.46 82.4973 95.6775 82.1723 95.1025 81.5923C94.5275 81.0123 94.2025 80.2298 94.2025 79.4123V73.2373C94.2025 72.4198 94.5275 71.6348 95.105 71.0573C95.6825 70.4798 96.4625 70.1548 97.2775 70.1523H103.403C104.218 70.1523 105 69.8273 105.575 69.2473C106.153 68.6673 106.475 67.8848 106.475 67.0648V60.9573C106.475 60.1398 106.15 59.3548 105.575 58.7773C105 58.1998 104.218 57.8723 103.403 57.8723H97.2775C96.4625 57.8723 95.68 57.5473 95.105 56.9673C94.53 56.3873 94.205 55.6048 94.2025 54.7848V48.6098C94.2025 47.7923 94.5275 47.0073 95.105 46.4273C95.6825 45.8473 96.4625 45.5248 97.2775 45.5223H103.43C104.245 45.5223 105.028 45.8473 105.603 46.4273C106.178 47.0048 106.503 47.7898 106.503 48.6098V54.7548C106.503 55.5723 106.828 56.3573 107.403 56.9373C107.98 57.5173 108.76 57.8423 109.575 57.8423H115.7C116.515 57.8423 117.298 58.1673 117.873 58.7473C118.448 59.3273 118.773 60.1098 118.773 60.9273V67.0998C118.773 67.9173 118.448 68.7023 117.873 69.2798C117.297 69.8571 116.515 70.1826 115.7 70.1848H109.575C108.76 70.1848 107.978 70.5098 107.403 71.0898C106.828 71.6698 106.503 72.4523 106.503 73.2723V73.2598V79.4098L106.5 79.4123ZM146.425 94.8423C146.425 95.6598 146.1 96.4448 145.525 97.0248C145.24 97.3113 144.901 97.5385 144.528 97.6934C144.154 97.8483 143.754 97.9278 143.35 97.9273H137.198C136.383 97.9273 135.6 97.6023 135.025 97.0223C134.448 96.4448 134.125 95.6598 134.125 94.8423V88.6948C134.125 87.8773 133.8 87.0923 133.223 86.5123C132.646 85.9354 131.865 85.61 131.05 85.6073H124.965C124.15 85.6073 123.368 85.9323 122.793 86.5123C122.218 87.0923 121.893 87.8748 121.893 88.6923V94.8398C121.893 95.6573 121.568 96.4423 120.993 97.0198C120.416 97.5967 119.635 97.922 118.82 97.9248H112.668C111.853 97.9248 111.07 97.5998 110.495 97.0198C109.918 96.4423 109.595 95.6573 109.595 94.8398V88.6648C109.595 87.8473 109.92 87.0623 110.495 86.4823C111.073 85.9048 111.853 85.5798 112.668 85.5773H118.793C119.608 85.5773 120.39 85.2523 120.965 84.6723C121.543 84.0923 121.865 83.3098 121.865 82.4898V76.3423C121.865 75.5248 122.19 74.7398 122.765 74.1598C123.343 73.5823 124.123 73.2573 124.938 73.2548H131.09C131.905 73.2548 132.688 73.5798 133.263 74.1598C133.84 74.7373 134.163 75.5223 134.163 76.3423V82.4898C134.163 83.3073 134.488 84.0923 135.063 84.6723C135.64 85.2498 136.42 85.5748 137.235 85.5773H143.36C144.175 85.5773 144.958 85.9023 145.533 86.4823C146.108 87.0598 146.433 87.8448 146.433 88.6623V94.8373H146.42L146.425 94.8423ZM161.8 54.7748C161.8 55.5923 161.475 56.3773 160.9 56.9548C160.325 57.5323 159.543 57.8598 158.728 57.8598H152.603C151.788 57.8598 151.005 58.1848 150.43 58.7648C149.855 59.3448 149.53 60.1273 149.53 60.9448V67.0523C149.53 67.8698 149.855 68.6548 150.43 69.2348C151.008 69.8148 151.788 70.1398 152.603 70.1398H158.728C159.543 70.1398 160.325 70.4648 160.9 71.0448C161.475 71.6248 161.8 72.4073 161.8 73.2248V79.3998C161.8 80.2173 161.475 81.0023 160.9 81.5823C160.325 82.1623 159.543 82.4848 158.728 82.4873H152.578C151.763 82.4873 150.98 82.1623 150.405 81.5823C149.83 81.0048 149.505 80.2198 149.505 79.3998V73.2523C149.505 72.4348 149.18 71.6498 148.605 71.0698C148.029 70.4929 147.248 70.1675 146.433 70.1648H140.308C139.493 70.1648 138.71 69.8398 138.135 69.2598C137.558 68.6823 137.235 67.8973 137.235 67.0798V60.9048C137.235 60.0873 137.56 59.3023 138.138 58.7248C138.713 58.1474 139.495 57.822 140.31 57.8198H146.435C147.25 57.8198 148.033 57.4948 148.608 56.9148C149.183 56.3348 149.508 55.5523 149.508 54.7323V48.5848C149.508 47.7673 149.833 46.9823 150.408 46.4023C150.983 45.8223 151.765 45.4973 152.58 45.4973H158.73C159.545 45.4973 160.328 45.8223 160.903 46.4023C161.478 46.9823 161.803 47.7648 161.803 48.5848V54.7748H161.8Z" fill="url(#paint3_linear_71_2042)"/>
</g>
<defs>
<linearGradient id="paint0_linear_71_2042" x1="64" y1="0" x2="64" y2="128" gradientUnits="userSpaceOnUse">
<stop stop-color="#272727" stop-opacity="0.49"/>
<stop offset="1" stop-opacity="0"/>
</linearGradient>
<linearGradient id="paint1_linear_71_2042" x1="128" y1="0" x2="128" y2="128" gradientUnits="userSpaceOnUse">
<stop stop-color="#272727" stop-opacity="0.49"/>
<stop offset="1" stop-opacity="0"/>
</linearGradient>
<linearGradient id="paint2_linear_71_2042" x1="286.057" y1="61.9146" x2="-5.99503" y2="65.7671" gradientUnits="userSpaceOnUse">
<stop stop-color="#F8F29C"/>
<stop offset="0.17" stop-color="#F6DB2A"/>
<stop offset="0.33" stop-color="#F4A435"/>
<stop offset="0.55" stop-color="#E85A46"/>
<stop offset="0.7" stop-color="#B93483"/>
<stop offset="0.87" stop-color="#502B6E"/>
<stop offset="1" stop-color="#2A2136"/>
</linearGradient>
<linearGradient id="paint3_linear_71_2042" x1="211.473" y1="62.9023" x2="57.235" y2="64.9298" gradientUnits="userSpaceOnUse">
<stop stop-color="#F8F29C"/>
<stop offset="0.17" stop-color="#F6DB2A"/>
<stop offset="0.33" stop-color="#F4A435"/>
<stop offset="0.55" stop-color="#E85A46"/>
<stop offset="0.7" stop-color="#B93483"/>
<stop offset="0.87" stop-color="#502B6E"/>
<stop offset="1" stop-color="#2A2136"/>
</linearGradient>
<clipPath id="clip0_71_2042">
<rect width="192" height="128" fill="white"/>
</clipPath>
<clipPath id="clip1_71_2042">
<rect width="128" height="128" fill="white"/>
</clipPath>
</defs>
</svg>

<svg xmlns="http://www.w3.org/2000/svg" fill="none" viewBox="0 0 192 128"><g clip-path="url(#a)"><path fill="#78350f" d="M64 128c35.346 0 64-28.654 64-64S99.346 0 64 0 0 28.654 0 64s28.654 64 64 64"/><path fill="#fff" d="M64 122c32.033 0 58-25.967 58-58 0-32.032-25.967-58-58-58C31.968 6 6 31.968 6 64c0 32.033 25.968 58 58 58"/><path fill="#78350f" d="M47.52 41.136a10 10 0 0 0-3.486-1.37 9.2 9.2 0 0 0-3.668.042 9 9 0 0 0-3.288 1.442 8.6 8.6 0 0 0-2.414 2.634 9 9 0 0 0-1.168 3.424 9.4 9.4 0 0 0 .252 3.682c.538 2.012 3.024 2.396 4.732 1.172l4.352-3.112 4.364-3.12c1.706-1.226 2.104-3.674.324-4.794m46.014 2.748a8.66 8.66 0 0 0-5.702-4.076 9.2 9.2 0 0 0-3.668-.04 10 10 0 0 0-3.488 1.368c-1.78 1.12-1.38 3.568.326 4.792l4.364 3.122 4.352 3.112c1.708 1.224 4.194.84 4.732-1.172a9.4 9.4 0 0 0 .252-3.682 9 9 0 0 0-1.168-3.424M67.63 77.598a10.16 10.16 0 0 0-6.47 0c-1.16.394-2.172 1.006-2.108 1.928.116 1.412 2.36 3.828 3.982 4.326.992.3 1.614.28 2.72 0 1.622-.416 3.878-2.914 3.984-4.326.074-.922-.95-1.532-2.108-1.928m-11.118-4.544a7.2 7.2 0 0 0-2.128-1.888 6.8 6.8 0 0 0-2.666-.88 7 7 0 0 0-2.804.258c-.906.28-1.76.736-2.508 1.36a7.6 7.6 0 0 0-1.834 2.25c-.77 1.44.454 2.956 2.098 3.142l4.152.468 4.184.476c1.644.188 3.192-1.006 2.77-2.582a7.6 7.6 0 0 0-1.264-2.604m25.736-1.298a7.4 7.4 0 0 0-2.51-1.36 7 7 0 0 0-2.802-.258 6.8 6.8 0 0 0-2.666.882 7.2 7.2 0 0 0-2.13 1.888 7.5 7.5 0 0 0-1.264 2.604c-.42 1.576 1.128 2.77 2.76 2.582l4.186-.476 4.16-.468c1.646-.186 2.868-1.7 2.1-3.142a7.8 7.8 0 0 0-1.834-2.252"/><path fill="#78350f" d="M102.018 61.8a20.7 20.7 0 0 0 5.438-14.22 20.6 20.6 0 0 0-2.076-8.788c-3.732-7.718-13.174-13.744-22.838-11.732a17 17 0 0 0-1.168.302 11.6 11.6 0 0 0-3.92 2.08c-2.582 2.06-7.326 3.44-12.752 3.44h-.616c-5.424 0-10.168-1.384-12.75-3.444a11.6 11.6 0 0 0-3.922-2.078 16 16 0 0 0-1.168-.302c-9.662-2.012-19.104 4.014-22.836 11.732a20.6 20.6 0 0 0-2.076 8.786 20.72 20.72 0 0 0 5.44 14.222 1.46 1.46 0 0 1 .356 1.204c-2.328 13.1 1.108 23.88 8.18 31.554 7.428 8.06 18.324 12.076 28.894 12.294h.382c10.568-.218 21.466-4.232 28.894-12.292 7.072-7.676 10.508-18.454 8.18-31.556a1.44 1.44 0 0 1 .356-1.204zm-6.186-2.272a1.74 1.74 0 0 0-.6 1.764c5.49 22.872-8.62 36.224-24.83 39.086h-.01a38 38 0 0 1-4.732.54c-.094 0-.2.01-.294.01-.296.02-.6.02-.896.032h-.074l-.02-.002h-.054c-.296-.01-.6-.01-.896-.03-.094 0-.2-.012-.296-.012a38 38 0 0 1-4.73-.54h-.012C42.18 97.516 28.068 84.164 33.56 61.29a1.74 1.74 0 0 0-.6-1.762 15 15 0 0 1-5.66-11.9 14.9 14.9 0 0 1 1.486-6.306c2.76-5.716 9.706-9.876 16.23-8.516.764.156 2.812.82 4.808 1.756.724.34 1.404.764 2.04 1.244 2.616 1.976 7.25 3.29 12.532 3.296 5.284-.004 9.92-1.32 12.534-3.294.636-.48 1.314-.904 2.04-1.244 1.994-.936 4.042-1.6 4.808-1.758 6.522-1.36 13.468 2.8 16.23 8.518a14.9 14.9 0 0 1 .03 12.91 15 15 0 0 1-4.206 5.294"/></g><g clip-path="url(#b)"><path fill="#0a0a0a" d="M192 64c0 35.348-28.653 64-64 64S64 99.347 64 64 92.653 0 128 0s64 28.653 64 64"/><path fill="url(#c)" d="M191.75 64C191.75 28.793 163.208.25 128 .25S64.25 28.793 64.25 64s28.543 63.75 63.75 63.75v.25c-35.347 0-64-28.653-64-64S92.653 0 128 0s64 28.653 64 64-28.653 64-64 64v-.25c35.208 0 63.75-28.543 63.75-63.75"/><path fill="url(#d)" d="M128 119.775c30.802 0 55.775-24.973 55.775-55.775 0-30.803-24.973-55.775-55.775-55.775S72.225 33.197 72.225 64 97.198 119.775 128 119.775"/><path fill="#0a0a0a" d="M128 118.49c30.095 0 54.49-24.395 54.49-54.49S158.095 9.51 128 9.51 73.51 33.905 73.51 64s24.395 54.49 54.49 54.49"/><path fill="url(#e)" d="M109.575 33.158a3.08 3.08 0 0 1 3.072-3.085h6.153c.815 0 1.597.325 2.172.904.575.578.901 1.363.901 2.18v6.148a3.1 3.1 0 0 0 .899 2.182 3.06 3.06 0 0 0 2.173.905h6.085a3.08 3.08 0 0 0 3.075-3.087v-6.148a3.08 3.08 0 0 1 3.072-3.085h6.148c.815 0 1.598.326 2.175.906s.9 1.362.9 2.18v6.172c0 .818-.325 1.602-.9 2.183a3.1 3.1 0 0 1-2.175.904h-6.123a3.07 3.07 0 0 0-2.175.905 3.1 3.1 0 0 0-.899 2.183v6.148c0 .817-.325 1.602-.9 2.182a3.07 3.07 0 0 1-2.173.905h-6.152a3.06 3.06 0 0 1-2.173-.905 3.1 3.1 0 0 1-.9-2.18v-6.148c0-.817-.325-1.602-.9-2.182a3.07 3.07 0 0 0-2.175-.905h-6.125a3.06 3.06 0 0 1-2.172-.905 3.1 3.1 0 0 1-.901-2.18v-6.172h.015v-.005zM106.5 79.411a3.084 3.084 0 0 1-3.072 3.085h-6.153a3.06 3.06 0 0 1-2.172-.904 3.1 3.1 0 0 1-.9-2.18v-6.175a3.084 3.084 0 0 1 3.075-3.085h6.125a3.086 3.086 0 0 0 3.072-3.088v-6.107a3.1 3.1 0 0 0-.9-2.18 3.07 3.07 0 0 0-2.172-.905h-6.126a3.06 3.06 0 0 1-2.172-.905 3.1 3.1 0 0 1-.903-2.183V48.61c0-.818.326-1.602.903-2.182a3.07 3.07 0 0 1 2.172-.905h6.153a3.06 3.06 0 0 1 2.173.904c.575.578.899 1.363.899 2.183v6.145c0 .817.326 1.602.901 2.182.577.58 1.357.906 2.172.906h6.125a3.06 3.06 0 0 1 2.173.904c.575.58.899 1.363.899 2.18V67.1a3.08 3.08 0 0 1-3.072 3.085h-6.125c-.815 0-1.597.325-2.172.905a3.1 3.1 0 0 0-.901 2.182v-.012 6.15zm39.925 15.43c0 .818-.325 1.603-.9 2.183a3.06 3.06 0 0 1-2.175.902h-6.152a3.084 3.084 0 0 1-3.073-3.085v-6.147a3.09 3.09 0 0 0-3.075-3.087h-6.085a3.06 3.06 0 0 0-2.173.904 3.1 3.1 0 0 0-.899 2.18v6.148c0 .817-.325 1.602-.9 2.18a3.1 3.1 0 0 1-2.173.905h-6.153a3.08 3.08 0 0 1-3.072-3.085v-6.175a3.08 3.08 0 0 1 3.072-3.088h6.125a3.06 3.06 0 0 0 2.173-.904c.578-.58.9-1.363.9-2.183v-6.147c0-.818.325-1.603.9-2.183a3.1 3.1 0 0 1 2.173-.905h6.152a3.08 3.08 0 0 1 3.072 3.088v6.147c0 .818.326 1.603.9 2.183a3.1 3.1 0 0 0 2.173.904h6.125a3.06 3.06 0 0 1 2.173.906c.575.577.9 1.362.9 2.18v6.175h-.013zM161.8 54.776c0 .818-.325 1.602-.9 2.18a3.07 3.07 0 0 1-2.172.905h-6.125a3.06 3.06 0 0 0-2.173.905c-.575.58-.9 1.362-.9 2.18v6.107c0 .818.325 1.603.9 2.183.578.58 1.358.905 2.173.905h6.125c.815 0 1.597.325 2.172.905s.9 1.362.9 2.18V79.4c0 .817-.325 1.602-.9 2.182a3.07 3.07 0 0 1-2.172.906h-6.151a3.06 3.06 0 0 1-2.172-.906 3.1 3.1 0 0 1-.9-2.182v-6.148a3.084 3.084 0 0 0-3.072-3.087h-6.125a3.084 3.084 0 0 1-3.073-3.085v-6.175a3.086 3.086 0 0 1 3.075-3.085h6.125c.815 0 1.597-.325 2.172-.905s.9-1.362.9-2.182v-6.148c0-.818.326-1.602.901-2.182a3.06 3.06 0 0 1 2.172-.905h6.15c.815 0 1.597.325 2.172.905s.9 1.362.9 2.182v6.19z"/></g><defs><linearGradient id="c" x1="128" x2="128" y1="0" y2="128" gradientUnits="userSpaceOnUse"><stop stop-color="#272727" stop-opacity=".49"/><stop offset="1" stop-opacity="0"/></linearGradient><linearGradient id="d" x1="286.057" x2="-5.995" y1="61.915" y2="65.767" gradientUnits="userSpaceOnUse"><stop stop-color="#f8f29c"/><stop offset=".17" stop-color="#f6db2a"/><stop offset=".33" stop-color="#f4a435"/><stop offset=".55" stop-color="#e85a46"/><stop offset=".7" stop-color="#b93483"/><stop offset=".87" stop-color="#502b6e"/><stop offset="1" stop-color="#2a2136"/></linearGradient><linearGradient id="e" x1="211.473" x2="57.235" y1="62.903" y2="64.93" gradientUnits="userSpaceOnUse"><stop stop-color="#f8f29c"/><stop offset=".17" stop-color="#f6db2a"/><stop offset=".33" stop-color="#f4a435"/><stop offset=".55" stop-color="#e85a46"/><stop offset=".7" stop-color="#b93483"/><stop offset=".87" stop-color="#502b6e"/><stop offset="1" stop-color="#2a2136"/></linearGradient><clipPath id="a"><path fill="#fff" d="M0 0h128v128H0z"/></clipPath><clipPath id="b"><path fill="#fff" d="M64 0h128v128H64z"/></clipPath></defs></svg>
